!!!COM: Bach, Johann Sebastian
!!!OTL: 28. Nun komm, der Heiden Heiland
!!!ONM: No. 28
!!!OCL: Erk
!!!SCA: BWV 36.8
!!!YOE: Riemenschneider, Albert
!!!OPR: 371 Harmonized Chorales and 69 Chorale Melodies with Figured Bass
!!!OPT: Bach Chorale Harmonizations
!!!ONB: From the end of Canata No. 36
**harm	**root	**kern	**kern	**kern	**kern
!	!	!bass	!tenor	!alto	!sprno
*Iorgan	*Iorgan	*Iorgan	*Iorgan	*Iorgan	*Iorgan
*k[b-e-a-]	*k[b-e-a-]	*k[b-e-a-]	*k[b-e-a-]	*k[b-e-a-]	*k[b-e-a-]
*c:	*c:	*c:	*c:	*c:	*c:
*met(c)	*met(c)	*met(c)	*met(c)	*met(c)	*met(c)
*M4/4	*M4/4	*M4/4	*M4/4	*M4/4	*M4/4
*MM60	*MM60	*MM60	*MM60	*MM60	*MM60
=1-	=1-	=1-	=1-	=1-	=1-
i	4BB	8c	4e-	4g	4cc
.	.	8B-	.	.	.
ivb	4EE	4A-	8d	4f	4cc
.	.	.	8c	.	.
v	4FF#	8G	4d	4g	4b-
.	.	8F	.	.	.
ib	8BB	8E-	4c	8g	4ee-
vib	8GG	8C	.	16a-	.
.	.	.	.	16b-	.
=2	=2	=2	=2	=2	=2
iv	8EE	8F	4.c	8a-	8dd
ib	8BB	8E-	.	8g	8cc
-VIIc	8AA	8F	.	4f	4dd
V7	8FF#	8G	8B	.	.
i;	2BB;	2C;	2G;	2e-;	2cc;
=3	=3	=3	=3	=3	=3
i	4BB	4C	8e-	4g	8cc
.	.	.	8d	.	8dd
i	4BB	4c	4c	8g	4ee-
.	.	.	.	8a	.
-VII	4AA	8B-	4d	4b-	4ff
.	.	8A-	.	.	.
ic	4BB	4G	4e-	8b-	4ee-
.	.	.	.	8cc	.
=4	=4	=4	=4	=4	=4
iio	4CC#	4F	4A-	4dd	4ff
V/VI	4DD	4E-	8B-	8ee-	4gg
.	.	.	16c	8g	.
.	.	.	16d-	.	.
VI;	2GG;	2A-;	2c;	2a-;	2ee-;
!!linebreak: 2
=5	=5	=5	=5	=5	=5
Vb/VI	4DD	8G	4B-	4b-	4ee-
.	.	8F	.	.	.
Vb/III	4AA	8E-	4f	4b-	4ff
.	.	8D	.	.	.
III	8DD	4E-	8e-	8b-	8gg
viio	8AA#	.	8d	8b	8ff
VI	4GG	8A-	4c	4cc	4ee-
.	.	8G	.	.	.
=6	=6	=6	=6	=6	=6
iiob	4CC#	4F	4a-	8dd	8ff
.	.	.	.	8cc	8ee-
V	4FF#	4G	8d	4b	4dd
.	.	.	8g	.	.
i;	2BB;	2C;	2e-;	2g;	2cc;
=7	=7	=7	=7	=7	=7
i	4BB	8c	4e-	4g	4cc
.	.	8B-	.	.	.
viib/V	4EE#	4A	8d	4f#	4cc
.	.	.	8c	.	.
v	4FF#	8G	4d	8g	4b-
.	.	8F	.	8a	.
IIIb	4DD	8G	4g	8b-	4ee-
.	.	8Ay	.	8cc	.
=8	=8	=8	=8	=8	=8
V7b	8FF#	8B	8f	8g	8dd
i	8BB	8c	8e-	[8cc	8cc
V	4FF#	4G	16d	8cc]	4dd
.	.	.	16e-	.	.
.	.	.	8f	8b	.
I;	2BB;	2C;	2e;	2g;	2cc;
==	==	==	==	==	==
*-	*-	*-	*-	*-	*-
!!!CDT: 1685/3//-1750/7/28
!!!OCY: Deutschland
!!!AGN: chorale
!!!AST: Baroque
!!!AIN: vox
!!!YOY: 1941
!!!PPP: New York; London
!!!PPR: G. Schirmer
!!!ENC: David Huron
!!!EED: David Huron
!!!YEN: United States of America
!!!YER: 1992
!!!YEC: Copyright 1992 David Huron
!!!YEM: Rights to all derivative electronic formats reserved.
!!!YER: March 20, 1996
!!!AMT: simple quadruple
!!!EEV: 1.1
!!chor2scor: -l 2 -s 0.6 -o %b.pmx
